svg/remove-list.svg

<?xml version="1.0" encoding="UTF-8"?>
<svg xmlns="http://www.w3.org/2000/svg" xmlns:xlink="http://www.w3.org/1999/xlink" width="32" height="32" viewBox="0 0 32 32">
<path fill-rule="nonzero" fill="rgb(0%, 0%, 0%)" fill-opacity="1" d="M 1.792969 0 C 0.832031 0 0 0.832031 0 1.792969 L 0 4.480469 L 28.160156 4.480469 L 28.160156 1.792969 C 28.160156 0.832031 27.328125 0 26.367188 0 Z M 0 5.761719 L 0 25.601562 C 0 25.984375 0.253906 26.238281 0.640625 26.238281 L 19.261719 26.238281 C 19.582031 29.441406 22.335938 32 25.601562 32 C 29.121094 32 32 29.121094 32 25.601562 C 32 22.976562 30.398438 20.738281 28.160156 19.710938 L 28.160156 5.761719 Z M 4.480469 9.601562 L 7.039062 9.601562 L 7.039062 10.878906 L 4.480469 10.878906 Z M 8.960938 9.601562 L 23.679688 9.601562 L 23.679688 10.878906 L 8.960938 10.878906 Z M 4.480469 12.800781 L 7.039062 12.800781 L 7.039062 14.078125 L 4.480469 14.078125 Z M 8.960938 12.800781 L 23.679688 12.800781 L 23.679688 14.078125 L 8.960938 14.078125 Z M 4.480469 16 L 7.039062 16 L 7.039062 17.28125 L 4.480469 17.28125 Z M 8.960938 16 L 23.679688 16 L 23.679688 17.28125 L 8.960938 17.28125 Z M 4.480469 19.199219 L 7.039062 19.199219 L 7.039062 20.480469 L 4.480469 20.480469 Z M 8.960938 19.199219 L 21.359375 19.199219 C 20.816406 19.5625 20.324219 19.992188 19.886719 20.480469 L 8.960938 20.480469 Z M 25.601562 20.480469 C 28.414062 20.480469 30.71875 22.785156 30.71875 25.601562 C 30.71875 28.414062 28.414062 30.71875 25.601562 30.71875 C 22.785156 30.71875 20.480469 28.414062 20.480469 25.601562 C 20.480469 22.785156 22.785156 20.480469 25.601562 20.480469 M 22.460938 24.960938 C 22.078125 24.960938 21.824219 25.214844 21.824219 25.601562 C 21.824219 25.984375 22.078125 26.238281 22.460938 26.238281 L 28.738281 26.238281 C 29.121094 26.238281 29.378906 25.984375 29.378906 25.601562 C 29.378906 25.214844 29.121094 24.960938 28.738281 24.960938 Z M 22.460938 24.960938 "/>
</svg>

<svg role="img" viewBox="0 0 32 32" xmlns="http://www.w3.org/2000/svg"><path d="M1.793 0C.832 0 0 .832 0 1.793V4.48h28.16V1.793C28.16.832 27.328 0 26.367 0ZM0 5.762v19.84c0 .382.254.636.64.636h18.622c.32 3.203 3.074 5.762 6.34 5.762C29.122 32 32 29.121 32 25.602c0-2.625-1.602-4.864-3.84-5.891V5.76Zm4.48 3.84h2.56v1.277H4.48Zm4.48 0h14.72v1.277H8.96ZM4.48 12.8h2.56v1.277H4.48Zm4.48 0h14.72v1.277H8.96ZM4.48 16h2.56v1.281H4.48Zm4.48 0h14.72v1.281H8.96Zm-4.48 3.2h2.56v1.28H4.48Zm4.48 0h12.4a7.8 7.8 0 0 0-1.473 1.28H8.96Zm16.642 1.28c2.812 0 5.117 2.305 5.117 5.122 0 2.812-2.305 5.117-5.117 5.117-2.817 0-5.122-2.305-5.122-5.117 0-2.817 2.305-5.122 5.122-5.122m-3.141 4.48c-.383 0-.637.255-.637.642 0 .382.254.636.637.636h6.277c.383 0 .64-.254.64-.636 0-.387-.257-.641-.64-.641Zm0 0" fill="rgb(0%, 0%, 0%)"/></svg>
